src/assets/apple.svg

<svg width="83" height="20" viewBox="0 0 83 20" fill="none" xmlns="http://www.w3.org/2000/svg">
<g clip-path="url(#clip0)">
<path d="M13.0938 10.6004C13.0674 8.97455 13.761 7.70892 15.1731 6.80299C14.3767 5.63062 13.2023 4.97168 11.6494 4.82436C11.0969 4.77184 10.3907 4.90404 9.53159 5.22429C8.60746 5.57118 8.08719 5.74361 7.9718 5.74361C7.72786 5.74361 7.25946 5.59783 6.56535 5.30397C5.87276 5.01087 5.28189 4.86433 4.79401 4.86433C3.97261 4.87791 3.20841 5.10772 2.50265 5.55376C1.79665 6.00032 1.23209 6.61033 0.808744 7.38226C0.268991 8.34199 0 9.48797 0 10.82C0 12.019 0.19839 13.2177 0.596183 14.4175C0.968418 15.5635 1.44415 16.5693 2.0211 17.4345C2.53403 18.2208 2.98496 18.7937 3.36884 19.1539C3.9215 19.7132 4.48554 19.9801 5.06401 19.953C5.43599 19.9391 5.92337 19.7995 6.52689 19.5323C7.09119 19.2804 7.6565 19.1536 8.22156 19.1536C8.74764 19.1536 9.29271 19.2797 9.85828 19.5323C10.4868 19.7995 11.0008 19.9325 11.3986 19.9325C11.9892 19.9063 12.5408 19.6463 13.055 19.1539C13.2339 18.9932 13.4301 18.7737 13.6416 18.4939C13.8858 18.168 14.1203 17.8348 14.3448 17.4947C14.5319 17.2015 14.7085 16.9015 14.8745 16.5955C15.0524 16.2659 15.21 15.9254 15.3461 15.5761C15.4097 15.4295 15.4674 15.2799 15.5192 15.1267C15.5703 14.9735 15.6217 14.8174 15.6731 14.6573C15.1981 14.4447 14.7679 14.1436 14.383 13.757C13.5368 12.9057 13.1067 11.8527 13.0938 10.6004ZM27.0562 14.1631H26.9629L23.0525 5.11566H19.9817V19.7132H22.658V10.2591H22.7822L26.0501 17.7663H27.927L31.1845 10.2591H31.3092V19.7132H34.0163V5.11566H30.9666L27.0562 14.1631ZM10.667 3.20595C11.3477 2.33973 11.6881 1.40717 11.6881 0.407729V0.208149C11.6881 0.141024 11.6815 0.0746687 11.6688 0.00805664C11.1936 0.0347014 10.69 0.188165 10.1569 0.467423C9.62446 0.747706 9.18491 1.10126 8.83773 1.52681C8.14488 2.36689 7.79795 3.26564 7.79795 4.22511V4.41444C7.79795 4.4749 7.80453 4.53793 7.81718 4.60505C8.88303 4.71138 9.83297 4.24484 10.667 3.20595ZM65.2952 5.11566H68.3032V19.7134H65.2952V5.11566ZM77.3881 7.43606C79.1721 7.43606 80.1155 8.82646 80.1155 10.3237H83V10.0134C83 7.19037 80.8734 4.83794 77.3671 4.83794C73.6119 4.83794 71.3717 7.34025 71.3717 11.6075V13.2546C71.3717 17.5206 73.5911 19.9919 77.3565 19.9919C80.9561 19.9919 83 17.6062 83 14.9545V14.6337H80.1158C80.1158 16.1423 79.1929 17.3933 77.4094 17.3933C75.5832 17.3933 74.4211 16.0777 74.4211 13.2646V11.6188C74.4211 8.81545 75.5938 7.43606 77.3881 7.43606ZM45.521 14.3337C45.521 16.2914 44.3903 17.371 42.7308 17.371C41.0607 17.371 39.9303 16.3016 39.9303 14.3337V5.11566H36.9426V14.7616C36.9426 17.8744 39.1206 19.9917 42.7303 19.9917C46.3299 19.9917 48.5183 17.8744 48.5183 14.7616V5.11566H45.521V14.3337ZM58.4705 11.2114L56.3236 10.72C55.0584 10.4518 54.3944 9.88534 54.3944 9.04013C54.3944 7.91772 55.2965 7.21163 56.7495 7.21163C58.3882 7.21163 59.2076 8.16342 59.28 9.19027H62.0807C62.0496 6.61264 59.9235 4.81616 56.7594 4.81616C53.762 4.81616 51.3967 6.40998 51.3967 9.27584C51.3967 11.7569 53.0567 12.9111 55.0482 13.3507L57.1744 13.8529C58.6059 14.1844 59.3318 14.666 59.3318 15.6598C59.3318 16.7943 58.4396 17.5644 56.77 17.5644C54.9754 17.5644 54.0312 16.6016 53.9487 15.5212H51.0647C51.107 17.5854 52.4552 19.9917 56.6252 19.9917C60.131 19.9917 62.2994 18.2272 62.2994 15.3601C62.2983 12.7079 60.5452 11.6705 58.4705 11.2114Z" fill="white"/>
</g>
<defs>
<clipPath id="clip0">
<rect width="83" height="20" fill="white"/>
</clipPath>
</defs>
</svg>

<svg width="83" height="20" fill="none" xmlns="http://www.w3.org/2000/svg"><g clip-path="url(#clip0)"><path d="M13.094 10.6c-.027-1.625.667-2.891 2.08-3.797-.797-1.172-1.972-1.831-3.525-1.979-.552-.052-1.258.08-2.117.4-.925.347-1.445.52-1.56.52-.244 0-.713-.146-1.407-.44-.692-.293-1.283-.44-1.771-.44a4.35 4.35 0 00-2.291.69A4.913 4.913 0 00.809 7.382C.269 8.342 0 9.488 0 10.82c0 1.199.198 2.398.596 3.598.372 1.146.848 2.151 1.425 3.017.513.786.964 1.359 1.348 1.719.552.56 1.117.826 1.695.799.372-.014.86-.154 1.463-.42a4.13 4.13 0 011.695-.38c.526 0 1.07.127 1.636.38.629.266 1.143.4 1.54.4.591-.027 1.143-.287 1.657-.78.179-.16.375-.38.587-.66.244-.325.478-.658.703-.998.187-.294.364-.594.53-.9.177-.33.335-.67.471-1.019.064-.146.121-.296.173-.45.051-.152.103-.309.154-.469a4.283 4.283 0 01-1.29-.9c-.846-.851-1.276-1.904-1.29-3.157zm13.962 3.563h-.093l-3.91-9.047h-3.071v14.597h2.676V10.26h.124l3.268 7.507h1.877l3.258-7.507h.124v9.454h2.707V5.116h-3.05l-3.91 9.047zM10.667 3.206c.68-.866 1.021-1.799 1.021-2.798v-.2c0-.067-.007-.133-.02-.2-.474.027-.978.18-1.511.46-.533.28-.972.633-1.32 1.059-.692.84-1.039 1.739-1.039 2.698v.19c0 .06.007.123.02.19 1.065.106 2.015-.36 2.849-1.4zm54.628 1.91h3.008v14.597h-3.008V5.116zm12.093 2.32c1.784 0 2.727 1.39 2.727 2.888H83v-.31c0-2.824-2.127-5.176-5.633-5.176-3.755 0-5.995 2.502-5.995 6.77v1.647c0 4.266 2.22 6.737 5.984 6.737 3.6 0 5.644-2.386 5.644-5.038v-.32h-2.884c0 1.508-.923 2.76-2.707 2.76-1.826 0-2.988-1.316-2.988-4.13V11.62c0-2.804 1.173-4.183 2.967-4.183zm-31.867 6.898c0 1.957-1.13 3.037-2.79 3.037-1.67 0-2.8-1.07-2.8-3.037V5.116h-2.988v9.646c0 3.112 2.178 5.23 5.787 5.23 3.6 0 5.788-2.118 5.788-5.23V5.116h-2.997v9.218zm12.95-3.123l-2.147-.491c-1.266-.268-1.93-.835-1.93-1.68 0-1.122.903-1.828 2.355-1.828 1.64 0 2.459.951 2.531 1.978h2.8c-.03-2.577-2.157-4.374-5.32-4.374-2.998 0-5.363 1.594-5.363 4.46 0 2.48 1.66 3.635 3.651 4.075l2.126.502c1.432.331 2.158.813 2.158 1.807 0 1.134-.892 1.904-2.562 1.904-1.795 0-2.739-.962-2.821-2.043h-2.884c.042 2.064 1.39 4.47 5.56 4.47 3.506 0 5.674-1.764 5.674-4.63 0-2.653-1.754-3.69-3.828-4.15z" fill="#fff"/></g><defs><clipPath id="clip0"><path fill="#fff" d="M0 0h83v20H0z"/></clipPath></defs></svg>
